icon-svg/habbitat-ribbon.svg

<svg xmlns="http://www.w3.org/2000/svg" viewBox="0 0 24 24"><path fill="#44739e" d="M6.599 8.358c.632-.082 1.573-.137 2.196-.173.182-.01.34-.02.443-.027.84-.059 1.719-.1 3.273-.112h.361a11.5 11.5 0 0 1 2.63.316l.027.006a3.7 3.7 0 0 1 .982.323c.2.1.421.227.6.33a6 6 0 0 1-.337-.729 7 7 0 0 0-.315-.687c-.353-.636-.674-1.347-1.046-2.171-.245-.537-.52-1.147-.841-1.815a2 2 0 0 0-.072-.136 2 2 0 0 0-.791-.708 8.7 8.7 0 0 0-2.631-.713 14 14 0 0 0-1.74-.056 16 16 0 0 0-1.99.221 3 3 0 0 0-.185.042 1 1 0 0 0-.193.062.7.7 0 0 0-.14.086.2.2 0 0 0-.052.059l-.008.021c-.02.1-.084 1.757-.14 3.217-.07 1.784-.1 2.479-.114 2.66.015 0 .037 0 .069-.01Zm10.789 1.269-.115-.25a.6.6 0 0 0-.184-.238 13 13 0 0 0-.626-.349 3.6 3.6 0 0 0-.955-.313l-.027-.006c-.26-.057-.501-.1-.717-.141l1.228 5.462 1.017-2.008a7 7 0 0 0 .428-1.292l.03-.166a1.3 1.3 0 0 0-.079-.699M12.995 22l3.165-.773-2.49-.281Zm.479-13.313-.603 13.292.712-1.11Zm.2-.499-.035 6.117.057 6.378 2.095-6.562-1.268-5.831a11 11 0 0 0-.849-.102M7.603 20.846h5.204l.54-11.905Zm3.838-10.697a1.7 1.7 0 0 0 1 .412l.922-1.912.022-.479c-.3-.014-.543-.012-.758-.01h-.108a48 48 0 0 0-3.266.112c-.1.007-.262.017-.445.027-.62.036-1.559.091-2.187.172h-.012c-.017 0-.036.007-.055.009.105.125.393.16.826.212a8.9 8.9 0 0 1 2.84.751 8 8 0 0 1 1.221.706m3.324-1.289.083.381.002-.002Z"/></svg>

<?xml version="1.0" encoding="UTF-8"?>
<svg width="24px" fill="#44739e" height="24px" viewBox="0 0 24 24" version="1.1" xmlns="http://www.w3.org/2000/svg" xmlns:xlink="http://www.w3.org/1999/xlink">
            <path d="M 6.6,8.36 C 7.232,8.278 8.172,8.223 8.795,8.187 8.977,8.177 9.135,8.167 9.238,8.16 c 0.84,-0.059 1.719,-0.1 3.273,-0.112 h 0.108 0.253 a 11.489,11.489 0 0 1 2.629,0.316 l 0.027,0.006 a 3.668,3.668 0 0 1 0.982,0.323 c 0.2,0.1 0.421,0.227 0.6,0.33 A 6.3,6.3 0 0 1 16.773,8.294 6.977,6.977 0 0 0 16.458,7.607 C 16.105,6.971 15.784,6.26 15.412,5.436 15.168,4.899 14.893,4.289 14.572,3.621 14.561,3.597 14.537,3.548 14.5,3.485 A 1.984,1.984 0 0 0 13.709,2.778 8.675,8.675 0 0 0 11.078,2.065 14.282,14.282 0 0 0 9.338,2.009 15.916,15.916 0 0 0 7.349,2.23 C 7.301,2.239 7.23,2.255 7.164,2.272 A 1.118,1.118 0 0 0 6.971,2.334 0.733,0.733 0 0 0 6.831,2.42 0.168,0.168 0 0 0 6.779,2.479 L 6.771,2.5 c -0.02,0.1 -0.084,1.756 -0.14,3.216 -0.07,1.784 -0.1,2.479 -0.114,2.66 0.015,0 0.037,0 0.069,-0.01 z M 17.387,9.629 17.272,9.379 A 0.611,0.611 0 0 0 17.088,9.141 C 16.91,9.036 16.676,8.902 16.462,8.792 A 3.643,3.643 0 0 0 15.507,8.479 L 15.48,8.473 c -0.259,-0.057 -0.5,-0.1 -0.716,-0.141 l 1.227,5.461 1.017,-2.008 a 6.881,6.881 0 0 0 0.428,-1.291 v 0 l 0.03,-0.166 A 1.3,1.3 0 0 0 17.387,9.629 Z M 12.995,22 16.159,21.227 13.67,20.946 Z m 0.479,-13.311 -0.603,13.29 0.712,-1.11 z m 0.2,-0.499 -0.035,6.116 0.057,6.377 2.094,-6.561 -1.267,-5.83 C 14.2,8.241 13.921,8.21 13.674,8.19 Z m -6.07,12.656 h 5.203 l 0.54,-11.903 z m 3.837,-10.695 a 1.709,1.709 0 0 0 1,0.412 L 13.363,8.651 13.385,8.172 C 13.085,8.158 12.842,8.16 12.627,8.162 H 12.519 C 10.968,8.173 10.091,8.215 9.253,8.274 9.153,8.281 8.991,8.291 8.808,8.301 8.188,8.337 7.25,8.392 6.622,8.473 H 6.61 c -0.017,0 -0.036,0.007 -0.055,0.009 0.105,0.125 0.393,0.16 0.826,0.212 a 8.925,8.925 0 0 1 2.839,0.751 7.865,7.865 0 0 1 1.221,0.706 z m 3.324,-1.289 0.083,0.381 0.002,-0.002 z"/>

</svg>
